X: 19501
T: Jacky Tar
R: hornpipe
M: 4/4
K: Edorian
GA|:Beed e2ef|edBA BABc|d2dc dfgf|edBG AdBA|
G2GA B2gB|edBd eg3|EFGA BdBA|GEED E2GA:|
|:BGEG BGEG|BGAF ~E3B|AFDF AFDF|AF (3GFE DE (3FED|
G2GA B2gB|edBd eg3|EFGA BdBA|GEED E2GA:|

